templates/business-template/img/diamond.svg

<!-- Generated by IcoMoon.io -->
<svg version="1.1" xmlns="http://www.w3.org/2000/svg" width="24" height="24" viewBox="0 0 24 24">
<title>diamond</title>
<path fill="#fe504f" d="M17.408 1.967h-10.816l-6.592 6.533 12 13.533 12-13.533-6.592-6.533zM21.594 9.028l-0.014-0.061h-8.902l4.268-4.609 4.648 4.67zM10.398 17.386l-7.023-7.419h4.625l-0.465 0.223 2.863 7.196zM8.537 9.967h6.924l-3.461 8.654-3.463-8.654zM16 9.967h4.623l-7.023 7.419 2.863-7.196-0.463-0.223zM12 8.229l-3.914-4.262h7.826l-3.912 4.262zM7.053 4.396l4.268 4.571h-8.903l-0.012 0.023 4.647-4.594z"></path>
</svg>

<svg xmlns="http://www.w3.org/2000/svg" width="24" height="24"><path fill="#fe504f" d="M17.408 1.967H6.592L0 8.5l12 13.533L24 8.5l-6.592-6.533zm4.186 7.061l-.014-.061h-8.902l4.268-4.609 4.648 4.67zm-11.196 8.358L3.375 9.967H8l-.465.223 2.863 7.196zM8.537 9.967h6.924L12 18.621 8.537 9.967zm7.463 0h4.623L13.6 17.386l2.863-7.196L16 9.967zm-4-1.738L8.086 3.967h7.826L12 8.229zM7.053 4.396l4.268 4.571H2.418l-.012.023 4.647-4.594z"/></svg>
